do
  d1 $ s "bd:3(5,8)"
  d2 $ slow 4 $ (striate' 16 0.25 $ s "made:6*2" # gain 0.9) |+| speed "[0.5 3 1.4 6]"
  -- d3 $ s "[~ ~ hh*2 ~ ~ hh ~ . hh*2]"
  d4 $ slow 2 $ s "sn(3,8)?"
  d5 $ s "cp/2"
  d6 $ s "hh(3,8)"

hush
